public/Img/Home/discover__activity.svg

<svg width="36" height="36" viewBox="0 0 36 36" fill="none" xmlns="http://www.w3.org/2000/svg">
<path fill-rule="evenodd" clip-rule="evenodd" d="M27.415 5.77592C27.4152 5.77605 27.4154 5.77619 27.4157 5.77632L25.4432 7.74838C25.4431 7.7483 25.4429 7.74822 25.4428 7.74814L24.3004 8.89053V7.19679C24.3002 7.19671 24.3 7.19663 24.2998 7.19655V6.29985L19.7998 6.29985L18 6.29985L16.1998 6.29985C9.73807 6.29985 4.4998 11.5381 4.4998 17.9999C4.4998 20.9743 5.60972 23.6894 7.43796 25.7538L5.52592 27.6658C3.21041 25.1105 1.7998 21.7199 1.7998 17.9999C1.7998 10.047 8.2469 3.59985 16.1998 3.59985H18H19.7998H24.3004H26.1H29.5911L27.415 5.77592Z" fill="url(#paint0_radial_262_169)"/>
<path d="M24.006 21.106L20.8244 19.8676C20.8244 19.8676 20.2174 19.6329 19.982 19.4017C19.8308 19.2527 19.8408 18.9028 19.9748 18.4542C20.1094 18.0057 21.7402 16.1833 21.7402 14.5281C21.7402 11.9721 20.0568 9.8999 17.9818 9.8999C15.9089 9.8999 14.227 11.9728 14.227 14.5281C14.227 16.1142 15.6807 18.0042 15.86 18.3462C16.0392 18.6911 15.9953 19.2138 15.8549 19.3722C15.6425 19.6105 14.8642 19.8489 14.8642 19.8489L11.9957 21.1247C11.3254 21.3652 10.7998 21.9959 10.7998 22.7087V23.0464C10.7998 23.824 11.4312 24.2999 12.2081 24.2999H23.79C24.5662 24.2999 25.1998 23.8233 25.1998 23.0464V22.7087C25.2012 21.9959 24.6756 21.3457 24.006 21.106Z" fill="#1D2130"/>
<path d="M19.8002 29.7C26.2619 29.7 31.5002 24.4617 31.5002 18C31.5002 15.0256 30.3903 12.3104 28.562 10.2461L30.4741 8.33398C32.7896 10.8894 34.2002 14.2799 34.2002 18C34.2002 25.9529 27.7531 32.4 19.8002 32.4L6.4082 32.4003L11.7002 27.1083V29.7H19.8002Z" fill="url(#paint1_radial_262_169)"/>
<defs>
<radialGradient id="paint0_radial_262_169" cx="0" cy="0" r="1" gradientUnits="userSpaceOnUse" gradientTransform="translate(-11.9576 -56.5651) rotate(60.7856) scale(133.427 436.828)">
<stop offset="0.175497" stop-color="#D798E1"/>
<stop offset="0.275566" stop-color="#9B9FFF"/>
<stop offset="0.49892" stop-color="#AED3FF"/>
<stop offset="0.565292" stop-color="#C9D4EF"/>
<stop offset="0.656871" stop-color="#CACFFA"/>
</radialGradient>
<radialGradient id="paint1_radial_262_169" cx="0" cy="0" r="1" gradientUnits="userSpaceOnUse" gradientTransform="translate(-7.34953 -51.8317) rotate(60.7853) scale(133.429 436.838)">
<stop offset="0.175497" stop-color="#D798E1"/>
<stop offset="0.275566" stop-color="#9B9FFF"/>
<stop offset="0.49892" stop-color="#AED3FF"/>
<stop offset="0.565292" stop-color="#C9D4EF"/>
<stop offset="0.656871" stop-color="#CACFFA"/>
</radialGradient>
</defs>
</svg>

<svg width="36" height="36" fill="none" xmlns="http://www.w3.org/2000/svg"><path fill-rule="evenodd" clip-rule="evenodd" d="m27.415 5.776-1.972 1.972L24.3 8.891V6.3h-8.1C9.738 6.3 4.5 11.538 4.5 18c0 2.974 1.11 5.69 2.938 7.754l-1.912 1.912A14.347 14.347 0 0 1 1.8 18c0-7.953 6.447-14.4 14.4-14.4H29.59l-2.176 2.176Z" fill="url(#a)"/><path d="m24.006 21.106-3.182-1.238s-.607-.235-.842-.466c-.151-.15-.141-.5-.007-.948.134-.448 1.765-2.27 1.765-3.926 0-2.556-1.683-4.628-3.758-4.628-2.073 0-3.755 2.073-3.755 4.628 0 1.586 1.454 3.476 1.633 3.818.18.345.135.868-.005 1.026-.213.238-.99.477-.99.477l-2.87 1.276c-.67.24-1.195.87-1.195 1.584v.337c0 .778.631 1.254 1.408 1.254H23.79c.776 0 1.41-.477 1.41-1.254v-.337c.001-.713-.524-1.363-1.194-1.603Z" fill="#1D2130"/><path d="M19.8 29.7c6.462 0 11.7-5.238 11.7-11.7 0-2.974-1.11-5.69-2.938-7.754l1.912-1.912A14.347 14.347 0 0 1 34.2 18c0 7.953-6.447 14.4-14.4 14.4H6.408l5.292-5.292V29.7h8.1Z" fill="url(#b)"/><defs><radialGradient id="a" cx="0" cy="0" r="1" gradientUnits="userSpaceOnUse" gradientTransform="rotate(60.786 42.242 -38.476) scale(133.427 436.828)"><stop offset=".175" stop-color="#D798E1"/><stop offset=".276" stop-color="#9B9FFF"/><stop offset=".499" stop-color="#AED3FF"/><stop offset=".565" stop-color="#C9D4EF"/><stop offset=".657" stop-color="#CACFFA"/></radialGradient><radialGradient id="b" cx="0" cy="0" r="1" gradientUnits="userSpaceOnUse" gradientTransform="rotate(60.785 40.51 -32.181) scale(133.429 436.838)"><stop offset=".175" stop-color="#D798E1"/><stop offset=".276" stop-color="#9B9FFF"/><stop offset=".499" stop-color="#AED3FF"/><stop offset=".565" stop-color="#C9D4EF"/><stop offset=".657" stop-color="#CACFFA"/></radialGradient></defs></svg>
